X:71
T: Dawo hao
N: C1569
O: China,Shandong, Lijing
S: III, 363]
R: Haozi, Huanghe haozi]
M: 2/4
L: 1/16
K: F
e4d2e2 | c4d2e2 | d6de | d2c2d4 |
d6c2 | d4d4 | d2e2d2c2 | d4z4 |
e4d2e2 | c4d2e2 | A2ABA2G2 | A2D2F4 |
F6D2 | F4F4 | F2G2F2D2 | F4z4

@@@ Tune index: 6626
